X:1
T:Dans l'incendie et la brume
R:
C:Anamnèse
H:1998
N:
O:France
A:Champaigne
Z: Eric Forgeot - http://anamnese.online.fr
M:C
L:1/4
Q:1/4=135
K:Eb
%%staves [1 | 2 | 3]
%%measurenb 0
%%measurebox 1
%%staffsep 49pt
%%sysstaffsep 30pt
V:1
%%MIDI channel 1
%%MIDI program 60       % General MIDI french horn
%%MIDI transpose 0
%%MIDI control 7 125 %volume
%%MIDI control 10 100 %pan
z4 | z4 | z4 | z4 | c/ d/ e2c | A3/ G3/ c | B3[G-c-]|[G3c3]z |
V:2
%%MIDI channel 2
%%MIDI program 69       % General MIDI english horn
%%MIDI transpose 0
%%MIDI control 7 125 %volume
%%MIDI control 10 30 %pan
[C3G3][CG] | [C3E3] [CG] | [D3F3][C-G-]|[C3G3]z |  
[C3G3][CG] | [C3E3] [CG] | [D3F3][C-G-]|[C3G3]z |  
[Gc][Gc][Fd][G2B2] | [E2G2]
K:C
V:3
%%MIDI channel 3
%%MIDI program 70       % General MIDI bassoon
%%MIDI transpose -24
%%MIDI control 7 125 %volume
%%MIDI control 10 65 %pan
K:Eb bass
GCGC/ E/4D/4 | C3 E | D2-D/ E/4D/4 C-|C3 z | 
GCGC/ E/4D/4 | C3 E | D3 C-|C3 z | 

